X: 503
T: Polonaise g sharp minor	 op. posth.
C: Fryderyk Chopin
%%abc-version 2.0
%%abcx-abcm2ps-target-version 5.9.1 (29 Sep 2008)
%%abc-creator hum2abc beta
%%abcx-conversion-date 2021/10/03 11:23:47
%%abc-edited-by Mateusz Mrugas
%%abc-edited-by Jędrzej Mróz
%%abcx-initial-encoding-date 2020-06-05
%%humdrum-veritas 1855741568
%%humdrum-veritas-data 3741430081
%%linebreak <none>
%%barnumbers 0
L: 1/16
M: 3/4
N: Derived from PolGsharpm-1-K.krn
P: POLONAISE | pour le Piano-Forte
Q: "Moderato."
%%staves {1 2}
V: 1 clef=treble
V: 2 clef=bass
K: B
[V:1] [G2D2B,2] G,/B,/ (3D/G/B/ d2 !accent![^^F2D2C2]!accent![G2D2B,2]!accent![F2D2C2] | 
[V:2] [G,2G,,2] x2 z2 !accent![A,2D,2]!accent![G,2G,,2]!accent![A,2D,2] | 
[V:1] [G2D2B,2] G,/B,/ (3D/G/B/ d2 !accent![^^F2D2C2]!accent![G2D2B,2]!accent![F2D2C2] | 
[V:2] [G,2G,,2] x2 z2 !accent![A,2D,2]!accent![G,2G,,2]!accent![A,2D,2] | 
[V:1] [G2D2B,2][F2B,2=A,2] [E2B,2G,2-][D2B,2G,2][^^C4B,4G,4] | 
[V:2] G,2D,2E,4-(3E,F,E, (3D,F,E, | 
[V:1] [D4A,4^^F,4]z4d4 | 
[V:2] D,4D,,4z4 | 
[V:1] G2 (3:2:6z/ B/d/g/b/d'/g'6f'e' | 
[V:2] G,,2G,2[K:clef=treble] [B2D2]G,2[c2E2]G,2[K:clef=bass] | 
[V:1] !trill!e'4{/d'f'e'}d'6d'2 | 
[V:2] G,,2G,2[K:clef=treble][B2D2]G,2[B4D4][K:clef=bass] | 
[V:1] .^^c'2 !accent!A2 (3:2:6A^^c^eac'^e' g'2^^f'e' | 
[V:2] A,,2A,2[K:clef=treble] [G2^E2]A,2 [G2E2]A,2[K:clef=bass] | 
[V:1] ^^f'4d'6d'2 | 
[V:2] D,,2D,2[K:clef=treble][^^F2D2]A,2[F2D2]A,2[K:clef=bass] | 
[V:1] e'd'd''z/d'/ d'=d'=d''z/d'/ d'c'c''z/c'/ | 
[V:2] ^^F,,2^^F,2[K:clef=treble] [A2^D2]^^F,2[A2D2]F,2[K:clef=bass] | 
[V:1] c'/^b/^b'/b/ b/=b/=b'/b/ b/a/a'/a/ a/g/g'/g/ b'/g'/^e'/^^c'/ b/g/^e/^^c/ | 
[V:2] G,,2G,2[K:clef=treble] [B2D2]G,2!accent![B4G4^E4^^C4] | 
[V:1] d/b/g/d/ B/g/d/B/ G/d/B/G/ D/B/G/D/ B,/G/D/B,/ G,/D/B,/G,/ | 
[V:2] [B2G2D2] z2z4z4[K:clef=bass] | 
[V:1] ^^F,//A,//C//E// (3^^F/A/c/ !accent!e z/ [^^F,/D,/C,/][F,4D,4C,4][G,2D,2B,,2] z2 :|]|:  
[V:2] D,,2 !accent![CA,^^F,D,] z/ z/ z2 D,,2[G,,2G,,,2] z2 :|]|:  
[V:1] d6ed ^^cd{/f}ed | 
[V:2] ^^F,2[K:clef=treble][A2D2C2][A2D2C2][A2D2C2][A2D2C2][A2D2C2] | 
[V:1] d2>b2 ^^f2gag4 | 
[V:2] G,2[G2D2B,2] A,2[^^F2D2C2] B,2[G2D2][K:clef=bass] & G,4A,4B,4 | 
[V:1] {/g} g2!accent!G2-G4B3A | 
[V:2] E,4x4x4 & E,2[^^C2G,2] [C2G,2][C2G,2] [C2G,2][C2G,2] | 
[V:1] D dd' dd' d'd'' dd' d'd'' d | 
[V:2] [D4^^F,4D,4]z2[K:clef=treble] [cA]>[cA] [B2G2][G2B,2] | 
[V:1] d' d'd'' dd' d'd'' dd' d'd'' d | 
[V:2] [A4D4]z2 [cA]>[cA] [B2G2][G2B,2] | 
[V:1] .d'2e''c'' a'^^f'e'c' a^^fec | 
[V:2] [A4D4]z4z4[K:clef=bass] | 
[V:1] A^^FEC[K:clef=bass] A,^^F,E,C, A,, z z2[K:clef=treble] | 
[V:2] z4z4z ^^F,,E,D, | 
[V:1] G2 (3:2:6z/ B/d/g/b/d'/g'6f'e' | 
[V:2] G,,2G,2[K:clef=treble] [B2D2]G,2[c2E2]G,2[K:clef=bass] | 
[V:1] !trill!e'4{/d'f'e'}d'6d'2 | 
[V:2] G,,2G,2[K:clef=treble] [B2D2]G,2[B4D4][K:clef=bass] | 
[V:1] .^^c'2 !accent!A2 (3:2:6A^^c^eac'^e' g'2^^f'e' | 
[V:2] A,,2A,2[K:clef=treble] [G2^E2]A,2[G2E2]A,2[K:clef=bass] | 
[V:1] ^^f'4d'6d'2 | 
[V:2] D,,2D,2[K:clef=treble] [^^F2D2]A,2[F2D2]A,2[K:clef=bass] | 
[V:1] e'd'd''z/d'/ d'=d'=d''z/d'/ d'c'c''z/c'/ | 
[V:2] ^^F,,2^^F,2[K:clef=treble] [A2^D2]^^F,2[A2D2]F,2[K:clef=bass] | 
[V:1] c'/^b/^b'/b/ b/=b/=b'/b/ b/a/a'/a/ a/g/g'/g/ b'/g'/^e'/^^c'/ b/g/^e/^^c/ | 
[V:2] G,,2G,2[K:clef=treble] [B2D2]G,2!accent![B4G4^E4^^C4] | 
[V:1] d/b/g/d/ B/g/d/B/ G/d/B/G/ D/B/G/D/ B,/G/D/B,/ G,/D/B,/G,/ | 
[V:2] [B2G2D2] z2z4z4[K:clef=bass] | 
[V:1] ^^F,//A,//C//E// (3^^F/A/c/ !accent!e z/ [^^F,/D,/C,/][F,4D,4C,4][G,2D,2B,,2] z2 :|]  
[V:2] D,,2 !accent![CA,^^F,D,] z/ z/ z2 D,,2[G,,2G,,,2] z2 :|]  
[V:1] [M:3/4].b'2 z2[K:clef=bass] .!accent!B,,2[K:clef=treble] z a' (3b'd''^e' (3:2:6f'/b'/^^c'/d'/f'/a/ | 
[V:2] [M:3/4][B,,2B,,,2][D2F,2][D2F,2][D2F,2][D2F,2][D2F,2] | 
[V:1] (3bd'^e (3fb^^c (3dfA (3Bd^E F/B/d/A/ B/d/f/c/ | 
[V:2] B,,2[D2F,2] [D2F,2][D2F,2][D2F,2][D2F,2] | 
[V:1] d/f/b/^e/ f/b/d'/a/ b/d'/f'/^^c'/ (3:2:6d'/f'/b'/^e'/f'/b'/ d''/^c''/b'/a'/ b'/d'/a'/g'/ | 
[V:2] B,,2[D2F,2] [D2F,2][D2F,2][D2F,2][D2F,2] | 
[V:1] !trill!f'8{/^e'/g'/f'/} =e'2 z2 | 
[V:2] ^B,,2[F2D2G,2][F2D2G,2][F2D2G,2] C,2[E2C2G,2] | 
[V:1] .c''2 z2[K:clef=bass] .!accent!C,,2[K:clef=treble] z ^b (3c'e'^^f (3:2:6g/c'/d/e/g/^B/ | 
[V:2] C,2[E2C2G,2] [E2C2G,2][E2C2G,2][E2C2G,2][E2C2G,2] | 
[V:1] (3c'e'^^f (3gc'd (3eg^B c/e/^^F/G/ ed!trill!c2 {/^B/d/c/} | 
[V:2] C,2[E2C2G,2] [E2C2G,2][E2C2G,2][E2C2G,2][E2C2G,2] | 
[V:1] A2 (9:8:9c//e//f//a//c'//e'//f'//a'//c''// [e''c''][d''b'][c''a'][b'g'] [a'f'][g'e'][f'd'][e'c'] | 
[V:2] F,2[F2E2C2] [F2E2C2][F2E2C2][F2E2C2][F2E2C2] | 
[V:1] !trill![e'8c'8]{/d'/f'/e'/} d'2 z2 | 
[V:2] B,,2[E2A,2F,2][E2A,2F,2][E2A,2F,2] B,,2[D2B,2F,2] | 
[V:1] b2!accent![b'4f'4d'4b4][b'2f'2d'2b2] [b'3g'3e'3b3][b'g'e'b] | 
[V:2] (3B,,,D,,F,, (3B,,D,F, (3B,DF[K:clef=treble] (3BFB (3GBG (3EGE[K:clef=bass] | 
[V:1] .b2!accent![b'4f'4d'4b4][b'2f'2d'2b2] [b'3g'3e'3b3][b'g'e'b] | 
[V:2] (3B,,D,F, (3B,DF[K:clef=treble] (3Bdf (3bfb (3gbg (3ege | 
[V:1] [b'2f'2b2][b'2^e'2b2] [b'2=e'2b2][b'2d2b2] (3[b'=d'b]g'^e' (3=d'bg | 
[V:2] (3dfd (3=d^ed (3c=ec (3B^dB!accent![=d4B4G4^E4] | 
[V:1] (3fgf (3.eGA[c4E4][B2D2] z2 :|]|:  
[V:2] [^d2B2F2][c2F2][K:clef=bass] z2 !accent!F,2[B,4B,,4] :|]|:  
[V:1] {/e} e'2>d'2 !trill!c'b !trill!ag !trill!f^e !trill!=ed[K:clef=bass] | 
[V:2] F,,2F,2[K:clef=treble] [c2E2]F,2[c2E2]F,2 | 
[V:1] !trill!C,B,, !trill!A,,G,, !trill!F,,^E,, !trill!=E,,D,, !trill!C,,B,,, !trill!A,,,G,,, | 
[V:2] [c2E2]F,2 [c2E2]F,2[c2E2]F,2 | 
[V:1] (3F,,,A,,,C,, (3E,,F,,A,, (3C,E,F, (3A,CE[K:clef=treble] (3FAc (3egf | 
[V:2] [A2F2E2] z2z4z4[K:clef=bass] | 
[V:1] !trill!e8{/dfe} d2 z2 | 
[V:2] B,,2F,2[E2A,2]F,2 [D2B,2]F,2 | 
[V:1] (3b'f'd' (3bfd (3BFD (3B,DF (3^B,DF (3^Bd^b | 
[V:2] [B,,2B,,,2][B,4F,4D,4][B,2F,2D,2][^B,4F,4D,4] | 
[V:1] (3c''g'e' (3c'ge (3cGE (3CEG (3=D^EG (3=d^e=d' | 
[V:2] [C,2C,,2][C4G,4E,4][C2G,2E,2][=D4B,4G,4^E,4] | 
[V:1] (3:2:6!accent!^d''b'f'd'bf (3:2:6!accent!e''b'g'e'bg (3:2:6!accent!^e''=d''b'^e'=d'b | 
[V:2] [F,2F,,2][^D2B,2F,2] [G,2G,,2][E2B,2G,2] [=G,2=G,,2][^E2=D2B,2G,2] | 
[V:1] !trill![f'8^d'8]!trill![f'4c'4] | 
[V:2] [F8^D8B,8F,8][K:clef=treble]!trill!A4 | 
[V:1] !trill![e'4b4]!trill![d'4a4]!trill![c'4g4] | 
[V:2] !trill!G4!trill!F4!trill!E4[K:clef=bass] | 
[V:1] !trill![c'8g8][c'4a4] | 
[V:2] !trill![E12F,12] | 
[V:1] b2 z2[K:clef=bass] .!accent!B,,2[K:clef=treble] z a (3bd'^e (3:2:6f/b/^^c/d/f/A/ | 
[V:2] B,,2[D2F,2] [D2F,2][D2F,2][D2F,2][D2F,2] | 
[V:1] (3Bd^E (3fb^^c (3dfA (3Bd^E F/B/d/A/ B/d/f/c/ | 
[V:2] B,,2[D2F,2] [D2F,2][D2F,2][D2F,2][D2F,2] | 
[V:1] d/f/b/^e/ f/b/d'/a/ b/d'/f'/^^c'/ (3:2:6d'/f'/b'/^e'/f'/b'/ d''/^c''/b'/a'/ b'/d'/a'/g'/ | 
[V:2] B,,2[D2F,2] [D2F,2][D2F,2][D2F,2][D2F,2] | 
[V:1] !trill!f'8{/^e'/g'/f'/} =e'2 z2 | 
[V:2] ^B,,2[F2D2G,2][F2D2G,2][F2D2G,2] C,2[E2C2G,2] | 
[V:1] .c''2 z2[K:clef=bass] .!accent!C,,2[K:clef=treble] z ^b' (3c''e''^^f' (3:2:6g'/c''/d'/e'/g'/^b/ | 
[V:2] C,2[E2C2G,2] !accent![E2C2G,2][E2C2G,2][E2C2G,2][E2C2G,2] | 
[V:1] (3c'e'^^f (3gc'd (3eg^B c/e/^^F/G/ ed!trill!c2 {/^B/d/c/} | 
[V:2] C,2[E2C2G,2] [E2C2G,2][E2C2G,2][E2C2G,2][E2C2G,2] | 
[V:1] A2 (9:8:9c//e//f//a//c'//e'//f'//a'//c''// [e''c''][d''b'][c''a'][b'g'] [a'f'][g'e'][f'd'][e'c'] | 
[V:2] F,2[F2E2C2] [F2E2C2][F2E2C2][F2E2C2][F2E2C2] | 
[V:1] !trill![e'8c'8]{/d'/f'/e'/} d'2 z2 | 
[V:2] B,,2[E2A,2F,2][E2A,2F,2][E2A,2F,2] B,,2[D2B,2F,2] | 
[V:1] b2!accent![b'4f'4d'4b4][b'2f'2d'2b2] [b'3g'3e'3b3][b'g'e'b] | 
[V:2] (3B,,,D,,F,, (3B,,D,F, (3B,DF[K:clef=treble] (3BFB (3GBG (3EGE[K:clef=bass] | 
[V:1] .b2!accent![b'4f'4d'4b4][b'2f'2d'2b2] [b'3g'3e'3b3][b'g'e'b] | 
[V:2] (3B,,D,F, (3B,DF[K:clef=treble] (3Bdf (3bfb (3gbg (3ege | 
[V:1] [b'2f'2b2][b'2^e'2b2] [b'2=e'2b2][b'2d'2b2] (3[b'=d'b]g'^e' (3=d'bg | 
[V:2] (3dfd (3=d^ed (3c=ec (3B^dB!accent![=d4B4G4^E4] | 
[V:1] (3fgf (3.eGA[c4E4][B2D2] z2 :|]  
[V:2] [^d2B2F2][c2F2][K:clef=bass] z2 !accent!F,2[B,4B,,4] :|]
